X:1
T:Tiruchirappalli, 12.10
T:Tiruchirappalli, 12.10
T:Ella Wolcott, 1874
T:Public Domain Courtesy of the Cyber Hymnal™
C:Ella Wolcott, 1874
Z:Public Domain
Z:Courtesy of the Cyber Hymnal™
%%score ( 1 2 ) 3
L:1/8
Q:1/4=97
M:3/4
K:F
V:1 treble 
V:2 treble 
V:3 bass 
V:1
 [CF]2 [CG]2 [CF]2 | [CF][CE] [CE]2 z2 | [EG]2 [EA]2 [EG]2 | [FG]F F2 z2 | [FA]2 [FA]2 [Fc]2 | %5
 [Fc][FB] [FB]2 z2 | [FA]2 [CF]2 [CG]2 | [CF]6 |] %8
V:2
 x6 | x6 | x6 | x F F2 x2 | x6 | x6 | x6 | x6 |] %8
V:3
 [F,A,]2 [F,B,]2 [F,A,]2 | [C,A,][C,G,] [C,G,]2 z2 | [C,B,]2 [C,C]2 [C,B,]2 | %3
 [F,B,][F,A,] [F,A,]2 z2 | [F,C]2 [F,C]2 [A,,C]2 | [B,,D][B,,D] [B,,D]2 z2 | %6
 [C,C]2 [C,A,]2 [C,B,]2 | [F,A,]6 |] %8

